!!!OTL: 28. Freylekhs
!!!Genre:	Freylekhs
!!!Mode:	Freygish
!!!Listening/dance:	listening
!!!:	*C:; *c:
!!!One_Mode:	no
!!!Orig_tonic: C
**kern
*thru
*I"P1
*clefG2
*k[b-e-a-]
*>A
*C:
!LO:TX:a:i:t=C-major
=26||
*k[]
(8qff#X/
2gg)
=27
2ccc
=28
(8qff#X/
4gg)
(8qff#/
4gg)
=29
(8qff#X/
4gg)
(8qff#/
4gg)
=30
[4gg
16ggLL]
16ee
16cc
16eeJJ
=31
8ggL
8ffJ
4ee
=32
16ccLL
16ee
16cc
16eeJJ
8ccL
8eeJ
=33
2gg
=34
16ccLL
16eeJ
8ggJ
16ffLL
16eeJ
8ddJ
=35
8eeL
8ccJ
4gg
=36
8.ggL
16ddJk
16eeLL
16ff
16ee
16ddJJ
=37
2cc
*>E
!!!End-Modulation
!!!Begin-Modulation
*-
